src/assets/dark/EmailVerificationSuccess.svg

<svg width="181" height="181" viewBox="0 0 181 181" fill="none" xmlns="http://www.w3.org/2000/svg">
<circle cx="90.1992" cy="90.9258" r="90" fill="#87F1CB" fill-opacity="0.2"/>
<circle cx="90.1967" cy="90.9233" r="44.8549" fill="url(#paint0_linear)"/>
<path d="M109.873 74.7868L109.873 74.7868L81.6133 103.006L70.9248 92.333C70.9248 92.333 70.9248 92.333 70.9248 92.333C69.8383 91.2479 68.077 91.2481 66.9904 92.3329L66.9904 92.333C65.9035 93.4182 65.9035 95.178 66.9904 96.2633L79.646 108.901C79.646 108.901 79.646 108.901 79.646 108.901C80.7324 109.986 82.4948 109.985 83.5805 108.901L113.807 78.7173C114.894 77.632 114.894 75.8722 113.807 74.7868C112.721 73.7018 110.959 73.7018 109.873 74.7868Z" fill="white" stroke="white" stroke-width="0.8"/>
<defs>
<linearGradient id="paint0_linear" x1="59.8516" y1="153.226" x2="120.852" y2="53.2256" gradientUnits="userSpaceOnUse">
<stop stop-color="#27B381"/>
<stop offset="1" stop-color="#2BC58E"/>
</linearGradient>
</defs>
</svg>

<svg width="181" height="181" fill="none" xmlns="http://www.w3.org/2000/svg"><circle cx="90.199" cy="90.926" r="90" fill="#87F1CB" fill-opacity=".2"/><circle cx="90.197" cy="90.923" r="44.855" fill="url(#paint0_linear)"/><path d="M109.873 74.787h0l-28.26 28.219-10.688-10.673s0 0 0 0a2.785 2.785 0 00-3.935 0h0a2.776 2.776 0 000 3.93l12.656 12.638s0 0 0 0a2.786 2.786 0 003.934 0l30.227-30.184a2.776 2.776 0 000-3.93 2.784 2.784 0 00-3.934 0z" fill="#fff" stroke="#fff" stroke-width=".8"/><defs><linearGradient id="paint0_linear" x1="59.852" y1="153.226" x2="120.852" y2="53.226" gradientUnits="userSpaceOnUse"><stop stop-color="#27B381"/><stop offset="1" stop-color="#2BC58E"/></linearGradient></defs></svg>
